!!!!SEGMENT: Snf0232-Nunc_dimittis_servum_tuum.krn
!!!id: Snf0232
!!!AGN: Motet
!!!voices: 4
!!!COM: Ludwig Senfl
!!!OTL: Nunc dimittis servum tuum
**kern	**text	**kern	**text	**kern	**text	**kern	**text
*part4	*part4	*part3	*part3	*part2	*part2	*part1	*part1
*staff4	*staff4	*staff3	*staff3	*staff2	*staff2	*staff1	*staff1
*I"Bassus	*	*I"Tenor	*	*I"Altus	*	*I"Superius	*
*I'B	*	*I'T	*	*I'A	*	*I'S	*
*clefF4	*	*clefGv2	*	*clefGv2	*	*clefG2	*
*	*	*	*	*	*	*	*
*k[]	*	*k[]	*	*k[]	*	*k[]	*
*C:	*	*C:	*	*C:	*	*C:	*
*M2/1	*	*M2/1	*	*M2/1	*	*M2/1	*
*met(C|)	*	*met(C|)	*	*met(C|)	*	*met(C|)	*
!!section: Prima pars: Nunc dimittis servum tuum
!!!OMD: Prima pars: Nunc dimittis servum tuum
0r	.	0r	.	0r	.	0e	Nunc
=1	=1	=1	=1	=1	=1	=1	=1
0r	.	0r	.	1r	.	1g	di-
.	.	.	.	[1A	Nunc	1a	-mit-
=2	=2	=2	=2	=2	=2	=2	=2
0r	.	0r	.	1A]	.	0e	-tis
.	.	.	.	1c	di-	.	.
=3	=3	=3	=3	=3	=3	=3	=3
0r	.	0r	.	1d	-mit-	0a	ser-
.	.	.	.	[1A	-tis	.	.
=4	=4	=4	=4	=4	=4	=4	=4
0r	.	0r	.	1A]	.	1cc	-vum
.	.	.	.	[1d	ser-	1dd	tu-
=5	=5	=5	=5	=5	=5	=5	=5
0r	.	0r	.	1d]	.	0a	-um,
.	.	.	.	1f	-vum	.	.
=6	=6	=6	=6	=6	=6	=6	=6
0r	.	0r	.	1g	tu-	0b	Do-
.	.	.	.	[1d	-um,	.	.
=7	=7	=7	=7	=7	=7	=7	=7
0r	.	1r	.	1d]	.	1a	-mi-
.	.	[1E	Nunc	[1e	Do-	2.g	-ne,
.	.	.	.	.	.	4a	.
=8	=8	=8	=8	=8	=8	=8	=8
0r	.	1E]	.	1e]	.	2b	.
.	.	.	.	.	.	1cc	Do-
.	.	1G	di-	1d	.	.	.
.	.	.	.	.	.	2b	.
=9	=9	=9	=9	=9	=9	=9	=9
0AA	Nunc	1A	-mit-	0c	.	1.cc	.
.	.	[1E	-tis	.	.	.	.
.	.	.	.	.	.	4b	.
.	.	.	.	.	.	4a	.
=10	=10	=10	=10	=10	=10	=10	=10
1C	di-	1E]	.	1c	-mi-	1g	.
1D	-mit-	[1A	ser-	1F	.	2f	.
.	.	.	.	.	.	[2a	.
=11	=11	=11	=11	=11	=11	=11	=11
0AA	-tis	1A]	.	1c	-ne,	2a]	.
.	.	.	.	.	.	4g	.
.	.	.	.	.	.	4f	.
.	.	1c	-vum	1r	.	1e	-mi-
=12	=12	=12	=12	=12	=12	=12	=12
0D	ser-	1d	tu-	2r	.	2d	-ne,
.	.	.	.	1f	Do-	1dd	Do-
.	.	[1A	-um,	.	.	.	.
.	.	.	.	4e	.	4cc	.
.	.	.	.	4d	.	4b	.
=13	=13	=13	=13	=13	=13	=13	=13
1F	-vum	1A]	.	2c	.	1a	-mi-
.	.	.	.	1d	.	.	.
1G	tu-	[1B	Do-	.	.	1g	-ne,
.	.	.	.	[2g	.	.	.
=14	=14	=14	=14	=14	=14	=14	=14
0D	-um,	1B]	.	2g]	.	0r	.
.	.	.	.	4f	.	.	.
.	.	.	.	4e	.	.	.
.	.	1A	.	4f	.	.	.
.	.	.	.	4e	.	.	.
.	.	.	.	4d	.	.	.
.	.	.	.	4c	.	.	.
=15	=15	=15	=15	=15	=15	=15	=15
0E	Do-	2.G	.	1B	.	0r	.
.	.	4A	.	.	.	.	.
.	.	2B	.	1G	-mi-	.	.
.	.	[2c	.	.	.	.	.
=16	=16	=16	=16	=16	=16	=16	=16
1D	-mi-	2c]	.	1d	-ne,	1r	.
.	.	2B	-mi-	.	.	.	.
1C	-ne,	[1c	-ne,	2r	.	1g	se-
.	.	.	.	2e	se-	.	.
=17	=17	=17	=17	=17	=17	=17	=17
2r	.	1c]	.	1.e	-cun-	1.g	-cun-
2C	se-	.	.	.	.	.	.
[1C	-cun-	1c	se-	.	.	.	.
.	.	.	.	2e	-dum	2g	-dum
*	*	*	*	*	*	*	*
=18	=18	=18	=18	=18	=18	=18	=18
2C]	.	1.c	-cun-	1e	ver-	1g	ver-
2C	-dum	.	.	.	.	.	.
2C	ver-	.	.	1e	-bum	1g	-bum
2C	-bum	2c	-dum	.	.	.	.
=19	=19	=19	=19	=19	=19	=19	=19
2.F	tu-	1c	ver-	1f	tu-	0a	tu-
4G	.	.	.	.	.	.	.
2A	.	1c	-bum	1e	-um	.	.
2AA	.	.	.	.	.	.	.
=20	=20	=20	=20	=20	=20	=20	=20
1D	-um	0d	tu-	2r	.	1f	-um
.	.	.	.	2A	in	.	.
=-	=-	=-	=-	=-	=-	=-	=-
*	*	*	*	*M3/3%2	*	*	*
*	*	*	*	*met(3)	*	*	*
*	*	*	*	*Xtuplet	*	*	*
2r	.	.	.	3.B	pa-	2r	.
2D	in	.	.	6c	.	2f	in
.	.	.	.	3d	.	.	.
=21	=21	=21	=21	=21	=21	=21	=21
*	*	*	*	*tuplet	*	*	*
*	*	*	*	*M2/1	*	*	*
*	*	*	*	*met(C|)	*	*	*
2.E	pa-	1B	-um	2.G	.	2g	pa-
.	.	.	.	.	.	1e	.
4F	.	.	.	4A	.	.	.
2G	-ce,	2r	.	2.B	.	.	.
2GG	in	2B	in	.	.	2d	.
.	.	.	.	4G	.	.	.
=22	=22	=22	=22	=22	=22	=22	=22
2.C	pa-	2c	pa-	2G	.	[0e	-ce,
.	.	1A	.	1c	.	.	.
4D	.	.	.	.	.	.	.
2E	.	.	.	.	.	.	.
2EE	.	2G	.	2B	.	.	.
=23	=23	=23	=23	=23	=23	=23	=23
1AA	-ce,	0A	-ce,	1c	-ce,	0e]	.
2r	.	.	.	2r	.	.	.
[2A	qui-	.	.	2c	qui-	.	.
=24	=24	=24	=24	=24	=24	=24	=24
2A]	.	0r	.	2e	-a	0r	.
2A	-a	.	.	2e	vi-	.	.
2E	vi-	.	.	2.g	-de-	.	.
[2G	-de-	.	.	.	.	.	.
.	.	.	.	8fL	.	.	.
.	.	.	.	8eJ	.	.	.
=25	=25	=25	=25	=25	=25	=25	=25
2G]	.	0r	.	2d	.	0r	.
4F	.	.	.	1e	.	.	.
4E	.	.	.	.	.	.	.
1F	.	.	.	.	.	.	.
.	.	.	.	2d	.	.	.
=26	=26	=26	=26	=26	=26	=26	=26
0E	-runt	2r	.	2.e	.	2r	.
.	.	1e	qui-	.	.	2g	qui-
.	.	.	.	4f	.	.	.
.	.	.	.	1g	.	2b	-a
.	.	2e	-a	.	.	2b	vi-
=27	=27	=27	=27	=27	=27	=27	=27
0r	.	2B	vi-	1G	-runt	2.dd	-de-
.	.	1d	-de-	.	.	.	.
.	.	.	.	.	.	8ccL	.
.	.	.	.	.	.	8bJ	.
.	.	.	.	1r	.	2a	.
.	.	4c	.	.	.	2b	.
.	.	4B	.	.	.	.	.
=28	=28	=28	=28	=28	=28	=28	=28
1r	.	1c	.	0r	.	2e	-runt
.	.	.	.	.	.	1g	o-
2r	.	[1B	-runt	.	.	.	.
[2G	o-	.	.	.	.	2g	-cu-
=29	=29	=29	=29	=29	=29	=29	=29
2G]	.	1B]	.	2r	.	2.d	-li
2G	-cu-	.	.	1d	o-	.	.
.	.	.	.	.	.	4e	.
2D	-li	1r	.	.	.	4f	.
.	.	.	.	.	.	4g	.
[2F	me-	.	.	2d	-cu-	2a	.
=30	=30	=30	=30	=30	=30	=30	=30
2F]	.	0r	.	2A	-li	2a	me-
4E	.	.	.	1c	me-	4g	.
4D	.	.	.	.	.	4f	.
1E	.	.	.	.	.	2.g	-i,
.	.	.	.	4B	.	.	.
.	.	.	.	4A	.	4c	me-
=31	=31	=31	=31	=31	=31	=31	=31
0D	-i,	2r	.	1B	.	1d	.
.	.	1d	o-	.	.	.	.
.	.	.	.	1A	-i,	1f	.
.	.	2d	-cu-	.	.	.	.
=32	=32	=32	=32	=32	=32	=32	=32
1r	.	2A	-li	2r	.	1e	-i,
.	.	1c	me-	1g	o-	.	.
2r	.	.	.	.	.	2r	.
[2G	o-	4B	.	2g	-cu-	[2g	o-
.	.	4A	.	.	.	.	.
=33	=33	=33	=33	=33	=33	=33	=33
2G]	.	1B	.	1d	-li	2g]	.
2G	-cu-	.	.	.	.	2g	-cu-
2D	-li	[1A	-i,	2.f	me-	2a	-li
[2F	me-	.	.	.	.	[2a	me-
.	.	.	.	8eL	.	.	.
.	.	.	.	8dJ	.	.	.
=34	=34	=34	=34	=34	=34	=34	=34
2F]	.	1A]	.	2c	.	2a]	.
4E	.	.	.	1d	.	4g	.
4D	.	.	.	.	.	4f	.
1E	.	1r	.	.	.	2.g	.
.	.	.	.	2c#i	.	.	.
.	.	.	.	.	.	4a	.
=35	=35	=35	=35	=35	=35	=35	=35
1D	-i,	2r	.	2d	.	2b-i	.
.	.	1d	o-	2.f	.	2.a	.
2r	.	.	.	.	.	.	.
.	.	.	.	4e	.	4g	.
[2D	o-	2d	-cu-	4d	.	4f	.
.	.	.	.	4c	.	4e	.
=36	=36	=36	=36	=36	=36	=36	=36
2D]	.	1A	-li	2d	-i,	1f	.
2D	-cu-	.	.	1A	o-	.	.
2AA	-li	2.c	me-	.	.	[1e	-i
[2C	me-	.	.	2A	-cu-	.	.
.	.	8BL	.	.	.	.	.
.	.	8AJ	.	.	.	.	.
=37	=37	=37	=37	=37	=37	=37	=37
2C]	.	2G	.	1c	-li	1e]	.
4BB	.	1A	.	.	.	.	.
4AA	.	.	.	.	.	.	.
1BB	.	.	.	1d	me-	1r	.
.	.	2G#i	.	.	.	.	.
=38	=38	=38	=38	=38	=38	=38	=38
2AA	-i	1A	-i	1c	-i	2r	.
1A	sa-	.	.	.	.	1cc	sa-
.	.	1r	.	2r	.	.	.
2F	-lu-	.	.	[2f	sa-	2cc	-lu-
=39	=39	=39	=39	=39	=39	=39	=39
1B-X	-ta-	2r	.	2f]	.	1dd	-ta-
.	.	2d	sa-	2f	-lu-	.	.
2G	-re	2d	-lu-	1g	-ta-	2b	-re
[2c	tu-	[2e	-ta-	.	.	[2cc	tu-
=40	=40	=40	=40	=40	=40	=40	=40
2c]	.	2e]	.	2e	-re	4cc]	.
.	.	.	.	.	.	4b	.
2F	-um,	2c	.	2.f	tu-	1a	.
1B-i	sa-	1d	.	.	.	.	.
.	.	.	.	4e	.	.	.
.	.	.	.	[2d	.	2g	.
=41	=41	=41	=41	=41	=41	=41	=41
2A	-lu-	1e	-re	2d]	.	0a	-um,
2AA	-ta-	.	.	2c#i	.	.	.
2D	-re	2.f	tu-	1d	-um,	.	.
2D	tu-	.	.	.	.	.	.
.	.	4e	.	.	.	.	.
=42	=42	=42	=42	=42	=42	=42	=42
2GG	-um,	4d	.	2r	.	2r	.
.	.	4c	.	.	.	.	.
1G	sa-	4B	.	2d	sa-	1g	sa-
.	.	4A	.	.	.	.	.
.	.	2G	.	2B	-lu-	.	.
2E	-lu-	2B	-um,	[2e	-ta-	2g	-lu-
=43	=43	=43	=43	=43	=43	=43	=43
1A	-ta-	1c	sa-	2e]	.	1a	-ta-
.	.	.	.	2A	-re	.	.
2D	-re	2A	-lu-	1d	tu-	2f	-re
[2G	tu-	[2B	-ta-	.	.	[2g	tu-
=44	=44	=44	=44	=44	=44	=44	=44
2G]	.	2B]	.	2G	.	4g]	.
.	.	.	.	.	.	4f	.
2C	.	2G	-re	1c	.	1e	.
1F	.	1A	tu-	.	.	.	.
.	.	.	.	4B	.	2d	.
.	.	.	.	4A	.	.	.
=45	=45	=45	=45	=45	=45	=45	=45
[0E	-um	[0B	-um	0G	-um	[0e	-um
=46	=46	=46	=46	=46	=46	=46	=46
0E]	.	0B]	.	2r	.	0e]	.
.	.	.	.	1G	quod	.	.
.	.	.	.	2G	pa-	.	.
=47	=47	=47	=47	=47	=47	=47	=47
0r	.	0r	.	1A	-ra-	1r	.
.	.	.	.	2E	-sti,	2r	.
.	.	.	.	[2e	pa-	[2g	quod
=48	=48	=48	=48	=48	=48	=48	=48
0r	.	0r	.	4e]	.	2g]	.
.	.	.	.	4d	.	.	.
.	.	.	.	4c	.	2g	pa-
.	.	.	.	4B	.	.	.
.	.	.	.	2.A	-ra-	1a	-ra-
.	.	.	.	4B	.	.	.
=49	=49	=49	=49	=49	=49	=49	=49
0r	.	2r	.	2c	-sti,	2e	-sti,
.	.	1G	quod	2.g	quod	2.b	quod
.	.	.	.	4f	.	4a	.
.	.	2G	pa-	4e	.	4g	.
.	.	.	.	4d	.	4f	.
=50	=50	=50	=50	=50	=50	=50	=50
1r	.	1A	-ra-	2.c	pa-	2e	pa-
.	.	.	.	.	.	2f	.
.	.	.	.	4d	.	.	.
2r	.	2E	-sti,	2e	-ra-	4g	-ra-
.	.	.	.	.	.	4e	.
[2C	quod	[2e	quod	2E	.	[2g	.
=51	=51	=51	=51	=51	=51	=51	=51
2C]	.	4e]	.	2G	.	4g]	.
.	.	4d	.	.	.	4f	.
2C	pa-	4c	.	2A	.	1e	.
.	.	4B	.	.	.	.	.
1D	-ra-	2.A	pa-	1F	-sti,	.	.
.	.	.	.	.	.	2d	.
.	.	4B	.	.	.	.	.
=52	=52	=52	=52	=52	=52	=52	=52
0AA	-sti,	2c	-ra-	2r	.	2e	-sti,
.	.	2A	.	1c	quod	2.ee	quod
.	.	1A	-sti,	.	.	.	.
.	.	.	.	.	.	4dd	.
.	.	.	.	2c	pa-	4cc	.
.	.	.	.	.	.	4b	.
=53	=53	=53	=53	=53	=53	=53	=53
1r	.	2r	.	1d	-ra-	2a	.
.	.	2G	quod	.	.	2b	pa-
2r	.	2c	pa-	2A	-sti,	4cc	-ra-
.	.	.	.	.	.	4a	.
[2F	quod	2A	.	[2a	quod	[2cc	.
=54	=54	=54	=54	=54	=54	=54	=54
2F]	.	2c	-ra-	4a]	.	4cc]	.
.	.	.	.	4g	.	4b	.
2F	pa-	2d	.	4f	.	1a	.
.	.	.	.	4e	.	.	.
1G	-ra-	1B	.	2.d	.	.	.
.	.	.	.	.	.	2g	.
.	.	.	.	4e	pa-	.	.
=55	=55	=55	=55	=55	=55	=55	=55
2D	-sti,	2A	-sti,	2f	-ra-	[0a	-sti,
2.A	quod	1c	quod	2e	-sti,	.	.
.	.	.	.	2r	.	.	.
4G	.	.	.	.	.	.	.
4F	.	2c	pa-	2f	quod	.	.
4E	.	.	.	.	.	.	.
=56	=56	=56	=56	=56	=56	=56	=56
2.D	pa-	1d	-ra-	1f	pa-	0a]	.
4E	-ra-	.	.	.	.	.	.
1F	-sti,	1A	-sti,	2c	-ra-	.	.
.	.	.	.	2d	.	.	.
=57	=57	=57	=57	=57	=57	=57	=57
2r	.	2r	.	2A	-sti,	2r	.
1F	quod	1A	[quod	2.a	quod	1cc	[quod
.	.	.	.	4g	.	.	.
2F	pa-	2A	pa-	4f	.	2cc	pa-
.	.	.	.	4e	.	.	.
=58	=58	=58	=58	=58	=58	=58	=58
2.BB-X	-ra-	1B-X	-ra-	2.d	.	1dd	-ra-
4C	.	.	.	4e	pa-	.	.
1D	.	1F	-sti]	1f	-ra-	1a	-sti]
=59	=59	=59	=59	=59	=59	=59	=59
0AA	-sti	2r	.	0e	-sti	2r	.
.	.	1A	an-	.	.	1cc	an-
.	.	2A	-te	.	.	2cc	-te
=60	=60	=60	=60	=60	=60	=60	=60
0r	.	2A	fa-	0r	.	2cc	fa-
.	.	2G	-ci-	.	.	2b	-ci-
.	.	2.A	-em,	.	.	2.a	-em
.	.	4B	.	.	.	8gL	.
.	.	.	.	.	.	8fJ	.
=61	=61	=61	=61	=61	=61	=61	=61
2r	.	1c	.	2r	.	0e	.
1AA	an-	.	.	1c	an-	.	.
.	.	2A	an-	.	.	.	.
2AA	-te	2A	-te	2c	-te	.	.
=62	=62	=62	=62	=62	=62	=62	=62
2AA	fa-	2A	fa-	2c	fa-	0r	.
2GG	-ci-	2d	-ci-	2B	-ci-	.	.
2.AA	-em	2.c	-em	2.A	-em	.	.
4BB	.	8BL	.	8GL	.	.	.
.	.	8AJ	.	8FJ	.	.	.
=63	=63	=63	=63	=63	=63	=63	=63
1C	.	1G	.	1E	.	1.g	o-
[1C	o-	1r	.	[1e	o-	.	.
.	.	.	.	.	.	2g	-mni-
=64	=64	=64	=64	=64	=64	=64	=64
2C]	.	1.c	o-	2e]	.	1g	-um
2C	-mni-	.	.	2e	-mni-	.	.
1FF	-um	.	.	1A	-um,	[1a	po-
.	.	2c	-mni-	.	.	.	.
=65	=65	=65	=65	=65	=65	=65	=65
1F	po-	1c	-um	2r	.	1a]	.
.	.	.	.	1A	an-	.	.
1D	-pu-	[1d	po-	.	.	1f	-pu-
.	.	.	.	2A	-te	.	.
=66	=66	=66	=66	=66	=66	=66	=66
2.G	-lo-	1d]	.	2B	fa-	0g	-lo-
.	.	.	.	2G	.	.	.
4GG	.	.	.	.	.	.	.
1GG	.	1B	-pu-	2.d	.	.	.
.	.	.	.	4G	.	.	.
=67	=67	=67	=67	=67	=67	=67	=67
*	*	*	*	*M3/3%2	*	*	*
*	*	*	*	*met(3)	*	*	*
*	*	*	*	*Xtuplet	*	*	*
0C	-rum,	0c	-lo-	3G	-ci-	[0e	-rum,
.	.	.	.	3E	.	.	.
.	.	.	.	3A	.	.	.
=-	=-	=-	=-	=-	=-	=-	=-
*	*	*	*	*tuplet	*	*	*
*	*	*	*	*M2/1	*	*	*
*	*	*	*	*met(C|)	*	*	*
.	.	.	.	1G	-em	.	.
=68	=68	=68	=68	=68	=68	=68	=68
0r	.	0A	-rum,	2r	.	0e_	.
.	.	.	.	1c	o-	.	.
.	.	.	.	2A	-mni-	.	.
=69	=69	=69	=69	=69	=69	=69	=69
0r	.	1.c	o-	[0A	-um	0e]	.
.	.	2c	-mni-	.	.	.	.
=70	=70	=70	=70	=70	=70	=70	=70
1.F	o-	1c	-um	0A]	.	1.f	o-
.	.	[1d	po-	.	.	.	.
2D	-mni-	.	.	.	.	2f	-mni-
=71	=71	=71	=71	=71	=71	=71	=71
1D	-um	1d]	.	1B-X	po-	1f	-um
1E	po-	1B	-pu-	2G	-pu-	[1g	po-
.	.	.	.	[2G	-lo-	.	.
=72	=72	=72	=72	=72	=72	=72	=72
2C	-pu-	0c	-lo-	2G]	.	1g]	.
1C	-lo-	.	.	2E	.	.	.
.	.	.	.	1A	.	1e	-pu-
2AA	.	.	.	.	.	.	.
=73	=73	=73	=73	=73	=73	=73	=73
[0D	.	[0Al	-rum:	2F	.	1f	-lo-
.	.	.	.	2D	-rum,	.	.
.	.	.	.	2r	.	2.d	.
.	.	.	.	[2d	po-	.	.
.	.	.	.	.	.	4e	.
=74	=74	=74	=74	=74	=74	=74	=74
0D_	.	0A_	.	4d]	.	4f	.
.	.	.	.	4e	.	4g	.
.	.	.	.	4f	.	2a	.
.	.	.	.	4g	.	.	.
.	.	.	.	2a	.	4d	.
.	.	.	.	.	.	4e	.
.	.	.	.	4d	-pu-	4f	.
.	.	.	.	4e	.	4g	.
=75	=75	=75	=75	=75	=75	=75	=75
0D]	.	0A_	.	4f	.	2a	.
.	.	.	.	4g	.	.	.
.	.	.	.	2a	.	4d	.
.	.	.	.	.	.	4e	.
.	.	.	.	4d	-lo-	4f	.
.	.	.	.	4e	.	4g	.
.	.	.	.	4f	.	4a	.
.	.	.	.	4g	.	4b	.
=76	=76	=76	=76	=76	=76	=76	=76
[0AAl	-rum:	0A_	.	2a	.	[0ccl	-rum:
.	.	.	.	2e	.	.	.
.	.	.	.	4A	-rum:	.	.
.	.	.	.	4B	.	.	.
.	.	.	.	4c	.	.	.
.	.	.	.	4d	.	.	.
=77	=77	=77	=77	=77	=77	=77	=77
00AA]	.	00A]	.	00e	.	00cc]	.
=78||	=78||	=78||	=78||	=78||	=78||	=78||	=78||
*M2/1	*	*M2/1	*	*M2/1	*	*M2/1	*
*met(C|)	*	*met(C|)	*	*met(C|)	*	*met(C|)	*
!!section: Secunda pars: Lumen ad revelationem
!!!OMD: Secunda pars: Lumen ad revelationem
0r	.	0r	.	1f	Lu-	0r	.
.	.	.	.	1f	-men	.	.
=79	=79	=79	=79	=79	=79	=79	=79
0r	.	0r	.	2r	.	1cc	Lu-
.	.	.	.	2c	ad	.	.
.	.	.	.	2e	re-	1cc	-men
.	.	.	.	2f	-ve-	.	.
=80	=80	=80	=80	=80	=80	=80	=80
0r	.	0r	.	2d	-la-	2r	.
.	.	.	.	2c	-ti-	2g	ad
.	.	.	.	1d	-o-	1b	re-
=81	=81	=81	=81	=81	=81	=81	=81
0r	.	0r	.	2c	-nem	1cc	-ve-
.	.	.	.	1f	Gen-	.	.
.	.	.	.	.	.	2a	-la-
.	.	.	.	2e	.	2g	-ti-
=82	=82	=82	=82	=82	=82	=82	=82
0r	.	1r	.	2d	.	1a	-o-
.	.	.	.	2c	.	.	.
.	.	2r	.	2B	.	2g	-nem
.	.	2c	…ad	2A	.	[2cc	Gen-
=83	=83	=83	=83	=83	=83	=83	=83
0r	.	2e	re-	2c	.	4cc]	.
.	.	.	.	.	.	4b	.
.	.	2f	-ve-	2d	.	1a	.
.	.	1d	-la-	1B	-ti-	.	.
.	.	.	.	.	.	2g#i	-ti-
=84	=84	=84	=84	=84	=84	=84	=84
0r	.	1c	-ti-	1A	-um,	0a	-um,
.	.	1d	-o-	1f	lu-	.	.
=85	=85	=85	=85	=85	=85	=85	=85
1F	Lu-	1c	-nem,	1f	-men	0a	lu-
1F	-men	1r	.	2r	.	.	.
.	.	.	.	2c	ad	.	.
=86	=86	=86	=86	=86	=86	=86	=86
2r	.	1c	lu-	2.e	re-	1g	-men
2C	ad	.	.	.	.	.	.
.	.	.	.	4f	.	.	.
2E	re-	1c	-men	4g	.	2r	.
.	.	.	.	4G	.	.	.
2F	-ve-	.	.	2A	.	2c	ad
=87	=87	=87	=87	=87	=87	=87	=87
2D	-la-	2r	.	2F	-ve-	2d	re-
2C	-ti-	2G	ad	1G	-la-	2e	-ve-
1D	-o-	1B	re-	.	.	4d	-la-
.	.	.	.	.	.	4e	.
.	.	.	.	2F	-ti-	4f	.
.	.	.	.	.	.	4d	.
=88	=88	=88	=88	=88	=88	=88	=88
2C	-nem	1c	-ve-	2G	-o-	2e	.
1F	Gen-	.	.	4A	.	4f	.
.	.	.	.	4B	.	4g	.
.	.	2A	-la-	4c	.	4a	.
.	.	.	.	4A	.	4f	.
2E	.	2G	-ti-	4B	.	2g	-ti-
.	.	.	.	4c	.	.	.
=89	=89	=89	=89	=89	=89	=89	=89
2D	.	1A	-o-	2d	.	2f	-o-
2C	.	.	.	4e	.	2e	-nem
.	.	.	.	4c	.	.	.
2BB	.	2G	-nem	2d	.	2g	Gen-
2AA	.	[2c	Gen-	[2e	.	2a	.
=90	=90	=90	=90	=90	=90	=90	=90
2C	.	4c]	.	4e]	.	2g	.
.	.	4B	.	4e	-nem	.	.
2D	.	1A	-ti-	2.d	Gen-	2f	-ti-
1BB	-ti-	.	.	.	.	2d	-um,
.	.	.	.	4D	.	.	.
.	.	2G#i	-um,	2D	-ti-	2dd	gen-
=91	=91	=91	=91	=91	=91	=91	=91
1AA	-um,	4A	Gen-	1E	-um,	1.cc	.
.	.	4B	.	.	.	.	.
.	.	4c	.	.	.	.	.
.	.	4d	.	.	.	.	.
1r	.	4e	.	1r	.	.	.
.	.	4c	.	.	.	.	.
.	.	4d	.	.	.	2b	.
.	.	4e	.	.	.	.	.
=92	=92	=92	=92	=92	=92	=92	=92
1r	.	2f	.	2r	.	2a	.
.	.	1e	.	2G	Gen-	2g	.
2r	.	.	.	2A	.	1f	-ti-
2D	Gen-	2d	-ti-	2B	.	.	.
=93	=93	=93	=93	=93	=93	=93	=93
4AA	.	1e	-um	1.c	.	1e	-um
4BB	.	.	.	.	.	.	.
4C	.	.	.	.	.	.	.
4D	.	.	.	.	.	.	.
4E	.	1r	.	.	.	1r	.
4C	.	.	.	.	.	.	.
4D	.	.	.	2B	.	.	.
4E	.	.	.	.	.	.	.
=94	=94	=94	=94	=94	=94	=94	=94
2F	.	0r	.	2A	.	0r	.
1E	.	.	.	2G	.	.	.
.	.	.	.	1F	-ti-	.	.
2D	-ti-	.	.	.	.	.	.
=95	=95	=95	=95	=95	=95	=95	=95
0E	-um	1r	.	2E	-um	1g	et
.	.	.	.	2e	et	.	.
.	.	1G	et	2e	glo-	1b	.
.	.	.	.	2e	-ri-	.	.
=96	=96	=96	=96	=96	=96	=96	=96
0r	.	1B	.	1d	-am,	1.dd	glo-
.	.	[1d	glo-	1r	.	.	.
.	.	.	.	.	.	2dd	-ri-
=97	=97	=97	=97	=97	=97	=97	=97
1r	.	2d]	.	1d	et	1dd	-am,
.	.	2d	-ri-	.	.	.	.
1D	et	1d	-am,	1f	.	1a	.
=98	=98	=98	=98	=98	=98	=98	=98
1F	.	1A	.	1.a	glo-	2r	.
.	.	.	.	.	.	2a	et
[1A	glo-	2r	.	.	.	2.cc	glo-
.	.	2A	et	2a	.	.	.
.	.	.	.	.	.	4dd	.
=99	=99	=99	=99	=99	=99	=99	=99
2A]	.	2.c	glo-	1a	-ri-	2ee	.
2A	-ri-	.	.	.	.	2.cc	.
.	.	4d	.	.	.	.	.
1A	-am	2e	.	[1e	-am	.	.
.	.	.	.	.	.	4b	.
.	.	2c	.	.	.	[2a	.
=100	=100	=100	=100	=100	=100	=100	=100
1E	.	1B	-ri-	1e]	.	2a]	.
.	.	.	.	.	.	2g#i	-ri-
1r	.	[1A	-am	2r	.	[1a	-am
.	.	.	.	[2c	ple-	.	.
=101	=101	=101	=101	=101	=101	=101	=101
2r	.	0A]	.	2c]	.	0a]	.
1F	ple-	.	.	2c	-bis	.	.
.	.	.	.	1d	tu-	.	.
2F	-bis	.	.	.	.	.	.
=102	=102	=102	=102	=102	=102	=102	=102
1G	tu-	1r	.	1B	-ae	2r	.
.	.	.	.	.	.	1g	ple-
1E	-ae	2r	.	2c	Is-	.	.
.	.	[2c	ple-	2c	-ra-	2g	-bis
=103	=103	=103	=103	=103	=103	=103	=103
2F	Is-	2c]	.	1A	-el,	1a	tu-
2F	-ra-	2c	-bis	.	.	.	.
2D	-el,	2d	tu-	2r	.	2f	-ae
[2E	Is-	2B	-ae	[2e	Is-	[2g	Is-
=104	=104	=104	=104	=104	=104	=104	=104
2E]	.	2c	Is-	4e]	.	4g]	.
.	.	.	.	4f	.	4f	.
2C	.	2c	-ra-	4g	.	1e	.
.	.	.	.	4e	.	.	.
2D	.	1A	.	1f	-ra-	.	.
2D	-ra-	.	.	.	.	2d	-ra-
=105	=105	=105	=105	=105	=105	=105	=105
*M3/1	*	*M3/1	*	*M3/1	*	*M3/1	*
*met(3)	*	*met(3)	*	*met(3)	*	*met(3)	*
0AA	-el,	0.A	-el,	0c	-el,	0.e	-el,
1r	.	.	.	1r	.	.	.
=106	=106	=106	=106	=106	=106	=106	=106
1A	et	1%3r	.	1e	et	1%3r	.
1A	glo-	.	.	1e	glo-	.	.
1F	-ri-	.	.	1d	-ri-	.	.
=107	=107	=107	=107	=107	=107	=107	=107
0E	-am	1e	et	1e	-am	1b	et
.	.	1e	glo-	1r	.	1b	glo-
1r	.	1c	-ri-	1r	.	1a	-ri-
=108	=108	=108	=108	=108	=108	=108	=108
0E	ple-	0B	-am	0g	ple-	0b	-am
[1F	-bis	1r	.	[1c	-bis	1r	.
=109	=109	=109	=109	=109	=109	=109	=109
1F]	.	1r	.	1c]	.	1r	.
0D	tu-	0B	ple-	1d	tu-	0dd	ple-
.	.	.	.	1d	-ae	.	.
=110	=110	=110	=110	=110	=110	=110	=110
0C	-ae	0c	-bis	0e	Is-	1g	-bis
.	.	.	.	.	.	0a	tu-
[1D	Is-	[1A	tu-	[1f	-ra-	.	.
=111	=111	=111	=111	=111	=111	=111	=111
1D]	.	1A]	.	1f]	.	1a	-ae
0BB	-ra-	0G	-ae	0d	-el,	2b	Is-
.	.	.	.	.	.	2cc	.
.	.	.	.	.	.	2dd	.
.	.	.	.	.	.	2b	.
=112	=112	=112	=112	=112	=112	=112	=112
0AA	-el.	0A	Is-	0c	Is-	0cc	.
1r	.	[1F	-ra-	[1d	-ra-	1a	.
=113	=113	=113	=113	=113	=113	=113	=113
1%3r	.	1F]	.	1d]	.	1.a	.
.	.	0E	-el.	0B	.	.	.
.	.	.	.	.	.	2g#i	.
.	.	.	.	.	.	1g#i	-ra-
=114	=114	=114	=114	=114	=114	=114	=114
*M2/1	*	*M2/1	*	*M2/1	*	*M2/1	*
*met(C|)	*	*met(C|)	*	*met(C|)	*	*met(C|)	*
1D	Glo-	1F	Glo-	0A	-el.	0a	-el.
2D	-ri-	2F	-ri-	.	.	.	.
2D	-a	2F	-a	.	.	.	.
=115	=115	=115	=115	=115	=115	=115	=115
1E	Pa-	1G	Pa-	0r	.	0r	.
2C	-tri,	2E	-tri,	.	.	.	.
2D	et	2F	et	.	.	.	.
=116	=116	=116	=116	=116	=116	=116	=116
2.AA	Fi-	2E	Fi-	0r	.	0r	.
.	.	1A	.	.	.	.	.
4C	.	.	.	.	.	.	.
2BB	.	.	.	.	.	.	.
2BB	-li-	2G#i	-li-	.	.	.	.
=117	=117	=117	=117	=117	=117	=117	=117
0AA	-o,	0A	-o,	1c	Glo-	1e	Glo-
.	.	.	.	2c	-ri-	2e	-ri-
.	.	.	.	2c	-a	2e	-a
=118	=118	=118	=118	=118	=118	=118	=118
0r	.	0r	.	1d	Pa-	1f	Pa-
.	.	.	.	2B	-tri,	2d	-tri,
.	.	.	.	2c	et	2e	et
=119	=119	=119	=119	=119	=119	=119	=119
0r	.	1r	.	2B	Fi-	2g	Fi-
.	.	.	.	1e	.	2g	-li-
.	.	2r	.	.	.	2.f	-o,
.	.	2D	et	2d	-li-	.	.
.	.	.	.	.	.	8eL	.
.	.	.	.	.	.	8dJ	.
=120	=120	=120	=120	=120	=120	=120	=120
*M3/1	*	*M3/1	*	*M3/1	*	*M3/1	*
*met(3)	*	*met(3)	*	*met(3)	*	*met(3)	*
1r	.	0A	Spi-	0.e	-o,	0.c	.
1r	.	.	.	.	.	.	.
1AA	et	1A	-ri-	.	.	.	.
=121	=121	=121	=121	=121	=121	=121	=121
0E	Spi-	1.G	-tu-	1%3r	.	1%3r	.
.	.	2A	.	.	.	.	.
1E	-ri-	2B	.	.	.	.	.
.	.	2c	.	.	.	.	.
=122	=122	=122	=122	=122	=122	=122	=122
1.D	-tu-	0d	-i	1%3r	.	1%3r	.
2E	.	.	.	.	.	.	.
2F	.	1d	San-	.	.	.	.
2G	.	.	.	.	.	.	.
=123	=123	=123	=123	=123	=123	=123	=123
0A	-i	1.c	.	1%3r	.	1%3r	.
.	.	2A	.	.	.	.	.
1A	San-	1c	.	.	.	.	.
=124	=124	=124	=124	=124	=124	=124	=124
1.G	.	0B	-cto,	1%3r	.	1r	.
.	.	.	.	.	.	1r	.
2E	.	.	.	.	.	.	.
1G	.	1B	et	.	.	1d	et
=125	=125	=125	=125	=125	=125	=125	=125
0F	-cto,	1.A	Spi-	1r	.	0a	Spi-
.	.	.	.	1r	.	.	.
.	.	2B	.	.	.	.	.
1F	et	2c	.	1A	et	1a	-ri-
.	.	2d	.	.	.	.	.
=126	=126	=126	=126	=126	=126	=126	=126
1.E	Spi-	1G	.	0e	Spi-	1.g	-tu-
.	.	1c	.	.	.	.	.
2F	.	.	.	.	.	2a	.
2G	.	2B	.	1e	-ri-	2b	.
2A	-ri-	2e	-ri-	.	.	2cc	.
=127	=127	=127	=127	=127	=127	=127	=127
0D	-tu-	0f	-tu-	1.d	-tu-	0dd	-i
.	.	.	.	2e	.	.	.
1D	-i	1d	-i	2f	.	1dd	San-
.	.	.	.	2g	.	.	.
=128	=128	=128	=128	=128	=128	=128	=128
1AA	San-	1e	San-	0a	-i	1.cc	.
0A	.	1.c	.	.	.	.	.
.	.	.	.	.	.	2a	.
.	.	.	.	1a	San-	1cc	.
.	.	2d	.	.	.	.	.
=129	=129	=129	=129	=129	=129	=129	=129
0E	-cto.	0e	-cto,	1.g	.	0b	-cto,
.	.	.	.	2e	.	.	.
1r	.	1E	San-	1g	.	1b	San-
=130	=130	=130	=130	=130	=130	=130	=130
1%3r	.	1.F	.	0f	.	1.a	.
.	.	2G	.	.	.	2b	.
.	.	2A	.	1f	.	2cc	.
.	.	2B	.	.	.	2dd	.
=131	=131	=131	=131	=131	=131	=131	=131
0C	Sic-	0c	-cto.	0e	-cto.	0g	-cto.
[1D	-ut	[1F	Sic-	1r	.	1r	.
=132	=132	=132	=132	=132	=132	=132	=132
1D]	.	1F]	.	1%3r	.	1%3r	.
0E	e-	0G	-ut	.	.	.	.
=133	=133	=133	=133	=133	=133	=133	=133
0AA	-rat	0A	e-	0c	Sic-	1r	.
.	.	.	.	.	.	1r	.
1r	.	1D	.	[1d	-ut	[1f	Sic-
=134	=134	=134	=134	=134	=134	=134	=134
1%3r	.	1F	.	1d]	.	1f]	.
.	.	0E	.	0e	e-	0g	-ut
=135	=135	=135	=135	=135	=135	=135	=135
0F	in	0A	-rat	1A	-rat	0a	e-
.	.	.	.	1c	.	.	.
[1G	prin-	1r	.	[1B	.	[1d	-rat
=136	=136	=136	=136	=136	=136	=136	=136
1G]	.	1r	.	1B]	.	1d]	.
1A	-ci-	0c	in	0e	.	1r	.
1A	-pi-	.	.	.	.	1r	.
=137	=137	=137	=137	=137	=137	=137	=137
0D	-o,	0d	prin-	1%3r	.	0f	in
1r	.	1e	-ci-	.	.	[1g	prin-
=138	=138	=138	=138	=138	=138	=138	=138
1%3r	.	1e	-pi-	1%3r	.	1g]	.
.	.	0A	-o,	.	.	1a	-ci-
.	.	.	.	.	.	1a	-pi-
=139	=139	=139	=139	=139	=139	=139	=139
1G	et	1B	et	1%3r	.	0.d	-o,
1G	nunc,	1B	nunc,	.	.	.	.
1G	et	1B	et	.	.	.	.
=140	=140	=140	=140	=140	=140	=140	=140
1.A	sem-	0c	sem-	1%3r	.	1%3r	.
2G	.	.	.	.	.	.	.
1F	.	1d	.	.	.	.	.
=141	=141	=141	=141	=141	=141	=141	=141
1E	.	1e	.	1%3r	.	1%3r	.
0F	.	1c	.	.	.	.	.
.	.	1d	.	.	.	.	.
=142	=142	=142	=142	=142	=142	=142	=142
0.E	-per	0.G	-per	1g	…et	1b	et
.	.	.	.	1g	nunc,	1b	nunc,
.	.	.	.	1g	et	1b	et
=143	=143	=143	=143	=143	=143	=143	=143
1%3r	.	1%3r	.	1.a	sem-	0cc	sem-
.	.	.	.	2g	.	.	.
.	.	.	.	1f	.	1dd	.
=144	=144	=144	=144	=144	=144	=144	=144
1%3r	.	0A	et	1e	.	1ee	.
.	.	.	.	0f	.	1cc	.
.	.	1B	in	.	.	1dd	.
=145	=145	=145	=145	=145	=145	=145	=145
1%3r	.	0c	sae-	0e	-per	0g	-per
.	.	1c	-cu-	1r	.	1r	.
=146	=146	=146	=146	=146	=146	=146	=146
0E	et	0G	-la	0g	et	0b	et
1F	in	1r	.	1f	in	1a	in
=147	=147	=147	=147	=147	=147	=147	=147
0G	sae-	0B	sae-	0d	sae-	0b	sae-
1G	-cu-	1B	-cu-	1e	-cu-	1b	-cu-
=148	=148	=148	=148	=148	=148	=148	=148
0.D	-la	0d	-lo-	1f	-la	0a	-la
.	.	.	.	2d	sae-	.	.
.	.	.	.	2e	.	.	.
.	.	[1A	-rum.	2f	.	1a	sae-
.	.	.	.	2g	.	.	.
=149	=149	=149	=149	=149	=149	=149	=149
1%3r	.	1A]	.	0a	.	1a	-cu-
.	.	0B	A-	.	.	0dd	-lo-
.	.	.	.	1g#i	-cu-	.	.
=150	=150	=150	=150	=150	=150	=150	=150
0F	sae-	0.A	-men,	1.a	-lo-	0cc	-rum.
.	.	.	.	2g	.	.	.
1F	-cu-	.	.	1f	-rum.	1r	.
=151	=151	=151	=151	=151	=151	=151	=151
0A	-lo-	1%3r	.	[0.e	A-	0cc	A-
[1E	-rum.	.	.	.	.	1b	.
=152	=152	=152	=152	=152	=152	=152	=152
1E]	.	0c	sae-	1e]	.	1g	.
0F	A-	.	.	0A	.	0a	.
.	.	1c	-cu-	.	.	.	.
=153	=153	=153	=153	=153	=153	=153	=153
[0.E	.	0e	-lo-	1c	.	[0.g	-men,
.	.	.	.	1B	.	.	.
.	.	[1B	-rum	[1G	-men,	.	.
=154	=154	=154	=154	=154	=154	=154	=154
1E]	.	1B]	.	1G]	.	1g]	.
0AA	-men,	0c	a-	0A	.	1.e	a-
.	.	.	.	.	.	2f	.
=155	=155	=155	=155	=155	=155	=155	=155
0E	sae-	0B	-men,	1G	.	1.g	.
.	.	.	.	1e	sae-	.	.
.	.	.	.	.	.	2a	.
[1E	-cu-	1r	.	1e	-cu-	[1b	.
=156	=156	=156	=156	=156	=156	=156	=156
1E]	.	0B	sae-	0g	-lo-	0.b]	.
0G	-lo-	.	.	.	.	.	.
.	.	1B	-cu-	1d	-rum	.	.
=157	=157	=157	=157	=157	=157	=157	=157
0D	-rum	0d	-lo-	0f	a-	0a	-men,
[1F	a-	[1A	-rum	1c	.	1r	.
=158	=158	=158	=158	=158	=158	=158	=158
1F]	.	1A]	.	1d	.	1.a	a-
0E	.	0B	a-	0e	-men,	.	.
.	.	.	.	.	.	2g#i	.
.	.	.	.	.	.	1g#i	-men,
=159	=159	=159	=159	=159	=159	=159	=159
*M2/1	*	*M2/1	*	*M2/1	*	*M2/1	*
*met(C|)	*	*met(C|)	*	*met(C|)	*	*met(C|)	*
1AA	-men,	1A	-men,	1.e	a-	0a	.
[1A	a-	1r	.	.	.	.	.
.	.	.	.	2d	.	.	.
=160	=160	=160	=160	=160	=160	=160	=160
2A]	.	1.A	a-	2c	.	1r	.
2G	.	.	.	2B	.	.	.
2F	.	.	.	[1A	-men,	[1a	a-
2E	.	2G	.	.	.	.	.
=161	=161	=161	=161	=161	=161	=161	=161
1.D	.	2F	.	1A]	.	2a]	.
.	.	2E	.	.	.	2g	.
.	.	1D	-men,	[1d	a-	2f	.
2C	.	.	.	.	.	2e	.
=162	=162	=162	=162	=162	=162	=162	=162
2BB	.	1.G	a-	2d]	.	1d	.
2AA	.	.	.	2c	.	.	.
[1GG	-men,	.	.	2B	.	[1g	.
.	.	2F	.	2A	.	.	.
=163	=163	=163	=163	=163	=163	=163	=163
0GG]	.	2E	.	2.G	.	2g]	.
.	.	2D	.	.	.	2f	.
.	.	.	.	4A	.	.	.
.	.	1G	.	1B	.	2e	.
.	.	.	.	.	.	2d	.
=164	=164	=164	=164	=164	=164	=164	=164
1AA	a-	1E	.	[0Al	men.	[0cl [0ccl	-men.
2.FF	.	1F	.	.	.	.	.
4GG	.	.	.	.	.	.	.
=165	=165	=165	=165	=165	=165	=165	=165
00AAl	-men.	00El	-men.	00A]	.	00c]]	.
==	==	==	==	==	==	==	==
*-	*-	*-	*-	*-	*-	*-	*-
!!!system-decoration: [*]
!!!RDF**kern: i = editorial accidental
!!!RDF**kern: l = terminal long
!!!ENC: Benjamin Ory
!!!END: 2024/3/10
!!!EED: Benjamin Ory
!!!EEV: 2024/03/10
!!!YEC: Copyright 2024 Benjamin Ory, All Rights Reserved
!!!ONB: Translated from MusicXML on 2024/03/10
